X:1
T:Concerto Grosso
T:Op. 6, No. 12
T:G. F. Handel
T:Violin 1 Concertino
L:1/8
Q:1/4=48
M:4/4
K:D
V:1 treble nm="Violins 1"
V:1
"^Largo" b2 z/ F/B/>d/ dc z2 | c'2 z/ c/e/>e/ ed z2 | d'2 z/ A/d/>f/ fe z z | z4 z2 z d | %4
 c2 B>B B2 z d | cA/>^G/ G>F F2 z2 | ^D2 z2 z4 | E2 z2 z2 z/ D/A/>=c/ | %8
 (=cB) z/!p! E/B/>d/ d^c z/!f! F/c/>e/ | ed z2 z4 | z8 | e2 z/ B/e/>B/ Aa z/ a/g/>f/ | %12
 g>e f>b g/>f/f/>e/ e/>d/d/>c/ | c2 z2 z4 | z2 z/!p! A/A/>B/ =cA z/ A/c/>d/ | %15
!f! e2- e/>d/d/>c/ c/>g/f/>e/ dc/>B/ | B2 z2 z4 | z2 z g/>f/ e/>f/d/>c/ dc/>B/ | B2 z2 f2 z2 | %19
[Q:1/4=72]"^Adagio" e3 f f4 |][Q:1/4=132] z8 | z8 | z8 | z8 | z4 z2 z f | ed/c/ c>B B2 z2 | %26
 z4 z/ B/A/G/ F/E/D/C/ | B,f/g/ f/g/f/g/ f/g/f/g/ f/g/f/g/ | f z z2!p! e z z2 | e z z2 d z z2 | %30
 d z z2 c z z2 | f z z2 ^ece^g | cF/^G/ F/E/D/C/ B,dfb | Bd/c/ B/A/^G/F/ ^Ec/d/ c/B/A/G/ | %34
 A z z2 c z z2 | f z z2 e z z2 | d z z2 f2 z c' | d'DCc B2 z c' | d'DCc B!f!d'c'b | %39
 a>b T^g3/2f/4g/4 a/b/a/b/ c'/b/c'/b/ | a/b/a/b/ c'/b/c'/b/ a/b/a/b/ c'c | BA ^G2 F2 z2 | %42
!p! F2 z =c ^D2 z2 | B2 z ^d e2 z!f! e | ^deed e2 z2 | e2 z e e2 z2 | f2 z a f/!f!F/G/A/ B/c/d/e/ | %47
 f/f/f/g/ a/a/a/g/ f/F/G/A/ B/c/d/e/ | f/f/f/g/ a/a/a/g/ f/f/f/g/ a/a/a/g/ | %49
 f/f/f/g/ a/a/a/g/ f/A/d/e/ f/g/a/d/ | bB,EF G/B/c/d/ e/f/g/e/ | aA,DE F/A/B/c/ d/e/f/d/ | %52
 gG,B,E A,ecA | f z z2!pp! F z z2 | g z z2 G z z2 | a z z2 A z z2 | b z z2 B z z2 | a z z2 e z z2 | %58
!f! f/e/d/e/ f/e/f/d/ eA A,2 | d'/c'/b/c'/ d'/c'/d'/b/ c'c F2 | b/a/g/a/ b/a/b/c'/ d'ada | %61
 bG,A,c d2 z a | bG,A,c dbag | fd'ec' d'c'/b/ a/g/f/e/ | f/g/a/f/ e/f/g/e/ dc/B/ A/G/F/E/ | %65
 F/G/A/F/ E/F/G/E/ D2 z!p! f | f2 z2 z4 | z2 z d g2 z G | G2 z2 z4 | z2 z F F2 z2 | z2 z B B2 z2 | %71
 z2 z c c2 z2 | z2 z d d2 z2 | z2 z e f2 z2 | d'/c'/b/c'/ d'/c'/d'/b/ c'f F2 | %75
 b/a/g/a/ b/a/b/g/ ad D2 | g/f/e/f/ g/f/g/e/ fF F2 | BF F2 fBBf | %78
 e/c'/e/c'/ e/c'/e/c'/ d/d'/d/d'/ d/d'/d/d'/ | d/^g/d/g/ d/g/d/g/ c/a/c/a/ c/a/c/a/ | %80
 ^d/a/d/a/ d/a/d/a/ B/g/B/g/ f/e/=d/c/ | B/b/B/b/ e/b/e/b/ ^aF^Ac | fBdf gG/F/ E/D/C/B,/ | %83
 A,Ace fF/G/ F/E/D/C/ | DB,Bd eg/f/ e/d/c/B/ | ^AFcf d2 z2 | z8 | z4 z2 z"^Tutti"!f! f | %88
 ed Tc2 B2 z!pp! a | gf e2 d2 z!f! d/f/ | d/^g/d/g/ c/a/c/a/ ^d/a/d/a/ e/g/e/g/ | %91
 e/^a/e/a/ d/b/d/b/ c/b/c/b/ c/a/c/a/ | B/a/B/a/ B/g/e/g/ e/f/e/f/ d/f/d/f/ | %93
 c/f/c/f/ B/e/B/e/ ^Ac F2 | d'/c'/b/c'/ d'/c'/d'/b/ c'f F2 | b/a/g/a/ b/a/b/g/ ad D2 | %96
 g/f/e/f/ g/f/g/e/ fBB,f | ed c2!p! (.B.B.B.B) | BBBB BBBB | BBBB!f! ^a2 z a | %100
 ba/g/ f/e/d/c/ d/e/f/d/ c/d/e/c/ | BA/G/ FE D/E/F/D/ Cf | ed/c/ c>B B2 z G | F2 ED C3 B, | %104
[Q:1/4=72]"^Adagio" B,8 ||[K:E][Q:1/4=63]"^Aria - Larghetta e piano"!p! B4 G2 | E6 | c2 F2 GA | %108
 G6 | g6 | c6 | a4 f2 | d4 e2 | f2 (g2 e2) | c2 ^A2 B2 | e2 c3 B | B6 :: b6 | e6 | a4 f2 | %120
 d3 c B2 | g2 e2 c2 | a2 g2 f2 | ed d3 c | c6 | B6 | A2 G2 F2 | G2 e2 ^A2 | B6 | a4 c2 | B4 e2 | %131
 GF F3 E | E6 ::!f! B4 G2 | E6 | c2 F2 GA | G6 | g4 e2 | c6 | a4 f2 | d4 e2 | f2 Tg3 f/g/ | %142
 ^a3 g/a/ b2 | Be d2 c>B | B6 |!p! (GA)(BG)(AF) | EDEede | FedcBA | GABGFE | g3 f ed | cBAGFE | %151
 c'bagfe | dcBdeB | fBgdcB | ^Acfdec | dBcedc | BDFBdf |!f! b6 | e6 | a4 f2 | d3 c B2 | g2 e2 c2 | %162
 a3 g f2 | ed d3 c | c6 | B6 | A6 | G2 e2 ^A2 | B6 | a4 c2 | B4 e2 | GF F3 E | E6 |!p! bagfed | %174
 edcBAG | agfedc | dcBAGF | gfedcg | ac^Bgcf | edecG^B | cdefgB | BagfgB | AgfefA | GedcB^A | %184
 Bcdefg |!f! a4 c2 | B4 e2 | GF F3 E | E6 ::[K:D][M:4/4][Q:1/4=48]"^Largo" (.B.B.B.B) (.B.B.B.B) | %190
 BBBB AAAA | AAAA AAAA | GGGG GGGG | GGGG FFFF | F2 E2 F4 |][Q:1/4=132]"^Allegro" B>B c>c d>f B>B | %196
 c>c d>d e>g c>e | ^A>c F>A B>c d>e | f>c f>e d>c B>b | a>a ^g>g f2 z2 | b>b a>a ^g2 z2 | %201
 c'>c' b>b a>^g f>f | f>^g T^e>f f2 z2 | d>d c>c B2 z2 | e>e d>d c2 z2 | f>f e>e d>c B>b | %206
 b>b a>a a3/2b/4f/4 g>g | g3/2a/4e/4 f>f g>f b>e | f>c B>B c>A c>f | e>e d>c d3 d | %210
 d>d c>B A>^G F>G | ^E3 E F2 z2 | z8 | z8 | z8 | A>A B>B c>e A>A | B>B c>c d>f B>d | %217
 ^G>B E>G A>B c>d | e>B e>d c>e a>g | (3fgf (3efe d>f a>d | T=c4 B2 g2- | g>g f>e f>e d>e | %222
 Tc3 d/c/ d>A d>f | T^d3 e/d/ e>B e>^g | ^e3 e f>c ^a>f | d'>d' c'>c' b3 z/ b/ | %226
 (3aba g>f g3 z/ g/ | (3fgf (3efc (3ded c>f | B4 ^A3 z/ c/ | (3ded (3cdc B3 z/ ^d/ | %230
 (3efe (3ded c3 z/ e/ | (3fgf (3efe ^d3 z/ f/ | (3B=cB (3ABA G2 z2 | (3gag (3fgf e2 z2 | %234
 (3aba (3gag f2 z2 | (3b=c'b (3aba g>f e>f | ^d4 e3 z/ f/ | (3gag (3fgf (3efe (3ded | %238
 (3gag (3fgf (3efe (3ded | (3gag (3fgf (3efe (3ded | (3=cdc B>g ^A2 z2 | (3ded (3cdc B2 z2 | %242
 (3efe (3ded c2 z2 | (3fgf (3efe d>f B>b | (3aba g>f g3 z/ g/ | f>^e f>^g e2 z2 | z8 | %247
 f>f ^g>g a>c' f>f | ^g>g a>a b>d' g>b | ^e>^g c>^e (3fgf ^A>c | (3FGF (3EFE D2 z2 | %251
 (3FGF F>F B3 z/ e/ | ^a3 b/a/ b>f b>d' | c'3 d'/c'/ b>f g2- | g>f f>e f>c (3cdc | %255
 (3ded ^d>d (3efe f>f | (3gag ^g>g (3^aba b>b | (3c'd'c' d'>d' ^a>a b>b | f>f g>g ^A2 z2 | %259
 z4 z z/ g/ f>e | d2 c>B ^A3 B | B8 |] %262

